packages/foundations/assets/icons/functional/images/audio & video/fast_forward_30_20.svg

<svg width="20" height="20" viewBox="0 0 20 20" fill="none" xmlns="http://www.w3.org/2000/svg">
<g clip-path="url(#clip0_184_297)">
<path fill-rule="evenodd" clip-rule="evenodd" d="M4.04601 15.3905C4.69001 15.3905 5.08001 14.8445 5.08001 14.4345C5.08001 13.9655 4.33901 12.8345 4.33901 11.5645C4.33901 8.8705 6.38901 6.8405 8.88701 6.6065L8.20401 7.2505C8.04801 7.4455 7.91101 7.6995 7.91101 7.9535C7.91101 8.4605 8.37901 8.9095 8.90701 8.9095C9.16001 8.9095 9.43901 8.8175 9.62301 8.6315L11.801 6.4355C11.986 6.2495 12.069 5.9815 12.069 5.7275C12.0694 5.60728 12.0453 5.48824 11.9984 5.37755C11.9515 5.26687 11.8827 5.16684 11.796 5.0835L9.58901 2.8585C9.5011 2.76602 9.39532 2.69236 9.27809 2.64199C9.16085 2.59163 9.03461 2.5656 8.90701 2.5655C8.64335 2.56655 8.39078 2.67169 8.20425 2.85803C8.01772 3.04437 7.91233 3.29684 7.91101 3.5605C7.91131 3.68836 7.93741 3.81485 7.98775 3.93238C8.0381 4.04991 8.11166 4.15607 8.20401 4.2445L8.65301 4.6935C6.94153 4.85117 5.35111 5.6439 4.1949 6.91559C3.0387 8.18729 2.40051 9.84578 2.40601 11.5645C2.40601 12.9505 2.93301 15.3905 4.04601 15.3905ZM8.81901 10.3495C10.079 10.3495 10.994 11.1765 10.994 12.3155C10.994 12.7285 10.784 13.0905 10.364 13.3995C10.938 13.7195 11.285 14.2065 11.285 14.7805C11.285 17.2415 8.28401 17.3865 7.29801 17.4345H7.25001C6.99586 17.435 6.75163 17.336 6.56962 17.1586C6.38762 16.9812 6.28233 16.7396 6.27632 16.4855C6.2703 16.2314 6.36404 15.9851 6.53744 15.7993C6.71085 15.6135 6.95013 15.503 7.20401 15.4915C8.60701 15.4245 9.34101 15.2165 9.34101 14.8775C9.34101 14.7405 9.25501 14.5895 9.07001 14.5895C8.56501 14.5895 8.37001 14.7585 8.06601 14.7585C7.57801 14.7585 7.12101 14.3245 7.12101 13.7915C7.12101 13.3755 7.42401 13.0095 7.87301 12.9175C8.61801 12.7655 9.07801 12.5915 9.07801 12.4515C9.07801 12.3785 8.98801 12.2925 8.77601 12.2925C8.18801 12.2925 7.82401 12.6685 7.36701 12.6685C6.87201 12.6685 6.41901 12.2265 6.41901 11.6945C6.41901 11.3415 6.61901 10.9935 6.96101 10.8245C7.62001 10.5005 8.21101 10.3495 8.81901 10.3495ZM14.899 10.4125C16.5 10.4125 17.594 11.5455 17.594 13.2825V14.3755C17.594 16.1325 16.461 17.2655 14.802 17.2655C13.299 17.2655 12.206 16.1135 12.206 14.4155V13.2045C12.206 11.5445 13.338 10.4135 14.9 10.4135L14.899 10.4125ZM14.88 12.3605C14.45 12.3715 14.158 12.4825 14.158 13.1855V14.4155C14.158 15.0985 14.373 15.3075 14.9 15.2975C15.368 15.2875 15.622 15.0585 15.622 14.3565V13.2635C15.622 12.4435 15.232 12.3515 14.88 12.3605Z" fill="#1A1C1F"/>
</g>
<defs>
<clipPath id="clip0_184_297">
<rect width="20" height="20" fill="white"/>
</clipPath>
</defs>
</svg>

<svg xmlns="http://www.w3.org/2000/svg" width="20" height="20" fill="none"><g clip-path="url(#a)"><path fill="#1A1C1F" fill-rule="evenodd" d="M4.046 15.39c.644 0 1.034-.546 1.034-.956 0-.468-.741-1.6-.741-2.87 0-2.693 2.05-4.723 4.548-4.957l-.683.644c-.156.195-.293.449-.293.703 0 .507.468.956.996.956.253 0 .532-.092.716-.278l2.178-2.196c.185-.186.268-.454.268-.708a.9.9 0 0 0-.273-.644L9.589 2.859a.94.94 0 0 0-.682-.293 1 1 0 0 0-.996.995.95.95 0 0 0 .293.684l.449.449a6.88 6.88 0 0 0-6.247 6.87c0 1.386.527 3.826 1.64 3.826m4.773-5.04c1.26 0 2.175.827 2.175 1.966q0 .619-.63 1.083c.574.32.921.808.921 1.382 0 2.46-3.001 2.606-3.987 2.653H7.25a.972.972 0 0 1-.046-1.943c1.403-.066 2.137-.274 2.137-.614 0-.136-.086-.288-.271-.288-.505 0-.7.17-1.004.17-.488 0-.945-.434-.945-.968 0-.415.303-.782.752-.873.745-.152 1.205-.326 1.205-.466 0-.073-.09-.16-.302-.16-.588 0-.952.377-1.409.377-.495 0-.948-.443-.948-.975 0-.353.2-.7.542-.87.659-.323 1.25-.474 1.858-.474m6.08.063c1.601 0 2.695 1.133 2.695 2.87v1.093c0 1.757-1.133 2.89-2.792 2.89-1.503 0-2.596-1.152-2.596-2.85v-1.212c0-1.66 1.132-2.79 2.694-2.79zm-.019 1.947c-.43.011-.722.123-.722.825v1.23c0 .684.215.893.742.883.468-.01.722-.24.722-.941v-1.093c0-.82-.39-.912-.742-.903" clip-rule="evenodd"/></g><defs><clipPath id="a"><path fill="#fff" d="M0 0h20v20H0z"/></clipPath></defs></svg>
